!!!OTL: Die dienende Schwester.
!!!OTL-incipit: Es wohnt ein Pfalzgraf ueber dem Rhein,
!!!ARE: Europa, Mitteleuropa, Schweiz
!!!YOR: 4, S. 112
!!    ????
!!!SCT: Q0075f
!!!YEM: Copyright 1995, estate of Helmut Schaffrath.
**kern	**text
*ICvox	*
*M3/4	*
*k[b-]	*
*F:	*
!LO:TX:a:t=681 Schweiʒ	!
{8cc	Es
8a	wohm
8cc	ein
=1	=1
4cc	Pfalʒgraf
4cc	.
!LO:TUP:a	!
12dd	über
12dd	.
12dd	dem
=2	=2
4dd	Rhein,
8r}	.
{8b-	der
8g	hat
8b-	drei
=3	=3
4b-	ſchö-
4b-	-ne
8cc	Töchterlein,
8cc	.
=4	=4
4cc	.
4r}	.
{4cc	der
=5	=5
2f	hat
4f	drei
=6	=6
(4cc	schö-
8ffL	.
8eeJ)	.
4dd	-ne
=7	=7
2ee	Töch-
4dd	-ter-
=8	=8
4cc	-lein.
8r}	.
==	==
!!!AGN: Ballade, Adelige als Dienstmagd, Tod; Kinder - Spiel, Tanz
!!!ONB: ESAC (Essen Associative Code) Database: BALLADE
!!!AMT: simple triple
!!!AIN: vox
!!!EED: Helmut Schaffrath
!!!EEV: 1.0
!!!source: Deutsche Volkslieder mit ihren Melodien. Herausgegeben vom Deutschen Volksliedarchiv. Vierter Band. Berlin 1959.
!!!page: 112
!!!ENC: Anna Maria Matuszewska
!!!EEV: 2025/02/27
*-	*-
